apps/mobile/src/assets/images/graphics/indicator.svg

<svg width="96" height="76" viewBox="0 0 96 76" fill="none" xmlns="http://www.w3.org/2000/svg">
    <path
        d="M16.9842 20.6625L29.9969 33.915C31.4893 35.435 30.4633 38 28.3644 38H20.0158C20.0158 53.7225 32.5621 66.5 48 66.5C51.6846 66.5 55.2759 65.7875 58.4941 64.41C60.1731 63.6975 62.0854 64.22 63.3447 65.5025C65.7233 67.925 64.8838 72.01 61.7589 73.2925C57.5146 75.05 52.8506 76 48 76C27.385 76 10.6878 58.995 10.6878 38H2.33916C0.240352 38 -0.785724 35.435 0.706765 33.9625L13.7194 20.71C14.6056 19.76 16.0981 19.76 16.9842 20.6625ZM75.9842 38C75.9842 22.2775 63.4379 9.5 48 9.5C44.3154 9.5 40.7241 10.2125 37.5059 11.59C35.8269 12.3025 33.9146 11.78 32.6553 10.4975C30.2767 8.075 31.1162 3.99 34.2411 2.7075C38.4854 0.950001 43.1494 0 48 0C68.615 0 85.3122 17.005 85.3122 38H93.6608C95.7596 38 96.7857 40.565 95.2932 42.0375L82.2806 55.29C81.3478 56.24 79.9019 56.24 78.9691 55.29L65.9565 42.0375C64.5107 40.565 65.5367 38 67.6356 38H75.9842Z"
        fill="white" />
</svg>

<svg width="96" height="76" viewBox="0 0 96 76" fill="none" xmlns="http://www.w3.org/2000/svg"><path d="m16.984 20.663 13.013 13.252c1.492 1.52.466 4.085-1.633 4.085h-8.348c0 15.722 12.546 28.5 27.984 28.5 3.685 0 7.276-.713 10.494-2.09 1.68-.712 3.591-.19 4.85 1.093 2.38 2.422 1.54 6.507-1.585 7.79C57.515 75.05 52.85 76 48 76c-20.615 0-37.312-17.005-37.312-38H2.339C.24 38-.786 35.435.707 33.962L13.719 20.71a2.266 2.266 0 0 1 3.265-.047Zm59 17.337C75.984 22.277 63.438 9.5 48 9.5c-3.685 0-7.276.713-10.494 2.09-1.68.713-3.591.19-4.85-1.092-2.38-2.423-1.54-6.508 1.585-7.79C38.485.95 43.15 0 48 0c20.615 0 37.312 17.005 37.312 38h8.349c2.099 0 3.125 2.565 1.632 4.038L82.281 55.29c-.933.95-2.38.95-3.312 0L65.957 42.038C64.51 40.565 65.537 38 67.636 38h8.348Z" fill="#fff"/></svg>
